suite-common/icons/assets/icons/trash.svg

<svg xmlns="http://www.w3.org/2000/svg" xml:space="preserve" fill="none" viewBox="0 0 25 24">
  <path fill="#000" fill-rule="evenodd" d="M10.011 1.562c-.6.133-1.205.617-1.484 1.188-.19.391-.235.631-.235 1.256V4.5l-1.948.001c-2.193.001-2.17-.002-2.411.314-.105.137-.12.194-.12.435s.015.298.12.435c.187.245.383.313.91.314L5.291 6l.011 6.948.011 6.948.112.229c.212.432.611.746 1.055.831.182.035 1.916.045 6.458.036l6.208-.013.236-.111c.476-.223.785-.622.865-1.119.03-.18.044-2.504.044-7.009L20.292 6h.445c.368 0 .476-.015.628-.088q.398-.195.399-.662 0-.468-.399-.662c-.178-.086-.231-.088-2.128-.088h-1.945l-.001-.406c-.001-.629-.06-.944-.247-1.324a2.33 2.33 0 0 0-1.273-1.154c-.249-.093-.261-.094-2.875-.102-2.1-.007-2.677.002-2.885.048m5.354 1.526c.11.054.227.156.294.258.103.155.113.21.127.661l.014.493H9.792v-.46c0-.299.02-.508.058-.599.062-.149.299-.361.452-.406.052-.014 1.171-.029 2.487-.031 2.358-.004 2.396-.003 2.576.084m3.427 9.662v6.75h-12V6h12zm-8.568-3.67a.9.9 0 0 0-.291.235l-.12.158v6.554l.12.158a.84.84 0 0 0 .606.314c.217.001.492-.151.62-.345l.112-.169v-6.47l-.112-.169c-.128-.194-.403-.346-.62-.345a1 1 0 0 0-.315.079m4.5 0a.9.9 0 0 0-.291.235l-.12.158v6.554l.12.158a.84.84 0 0 0 .606.314c.217.001.492-.151.62-.345l.112-.169v-6.47l-.112-.169c-.128-.194-.403-.346-.62-.345a1 1 0 0 0-.315.079"/>
</svg>

<svg xmlns="http://www.w3.org/2000/svg" xml:space="preserve" fill="none" viewBox="0 0 25 24"><path d="M10.011 1.562 C 9.411 1.695,8.806 2.179,8.527 2.750 C 8.337 3.141,8.292 3.381,8.292 4.006 L 8.292 4.500 6.344 4.501 C 4.151 4.502,4.174 4.499,3.933 4.815 C 3.828 4.952,3.813 5.009,3.813 5.250 C 3.813 5.491,3.828 5.548,3.933 5.685 C 4.120 5.930,4.316 5.998,4.843 5.999 L 5.291 6.000 5.302 12.948 L 5.313 19.896 5.425 20.125 C 5.637 20.557,6.036 20.871,6.480 20.956 C 6.662 20.991,8.396 21.001,12.938 20.992 L 19.146 20.979 19.382 20.868 C 19.858 20.645,20.167 20.246,20.247 19.749 C 20.277 19.569,20.291 17.245,20.291 12.740 L 20.292 6.000 20.737 6.000 C 21.105 6.000,21.213 5.985,21.365 5.912 C 21.630 5.783,21.764 5.561,21.764 5.250 C 21.764 4.939,21.630 4.717,21.365 4.588 C 21.187 4.502,21.134 4.500,19.237 4.500 L 17.292 4.500 17.291 4.094 C 17.290 3.465,17.231 3.150,17.044 2.770 C 16.784 2.238,16.329 1.827,15.771 1.616 C 15.522 1.523,15.510 1.522,12.896 1.514 C 10.796 1.507,10.219 1.516,10.011 1.562 M15.365 3.088 C 15.475 3.142,15.592 3.244,15.659 3.346 C 15.762 3.501,15.772 3.556,15.786 4.007 L 15.800 4.500 12.796 4.500 L 9.792 4.500 9.792 4.040 C 9.792 3.741,9.812 3.532,9.850 3.441 C 9.912 3.292,10.149 3.080,10.302 3.035 C 10.354 3.021,11.473 3.006,12.789 3.004 C 15.147 3.000,15.185 3.001,15.365 3.088 M18.792 12.750 L 18.792 19.500 12.792 19.500 L 6.792 19.500 6.792 12.750 L 6.792 6.000 12.792 6.000 L 18.792 6.000 18.792 12.750 M10.224 9.080 C 10.130 9.123,9.999 9.228,9.933 9.315 L 9.813 9.473 9.813 12.750 L 9.813 16.027 9.933 16.185 C 10.069 16.364,10.328 16.498,10.539 16.499 C 10.756 16.500,11.031 16.348,11.159 16.154 L 11.271 15.985 11.271 12.750 L 11.271 9.515 11.159 9.346 C 11.031 9.152,10.756 9.000,10.539 9.001 C 10.460 9.001,10.319 9.037,10.224 9.080 M14.724 9.080 C 14.630 9.123,14.499 9.228,14.433 9.315 L 14.313 9.473 14.313 12.750 L 14.313 16.027 14.433 16.185 C 14.569 16.364,14.828 16.498,15.039 16.499 C 15.256 16.500,15.531 16.348,15.659 16.154 L 15.771 15.985 15.771 12.750 L 15.771 9.515 15.659 9.346 C 15.531 9.152,15.256 9.000,15.039 9.001 C 14.960 9.001,14.819 9.037,14.724 9.080 " stroke="none" fill-rule="evenodd" fill="black"></path></svg>
